dist/img/advantages/01.svg

<?xml version="1.0" encoding="UTF-8"?> <svg xmlns="http://www.w3.org/2000/svg" width="300" height="300" viewBox="0 0 300 300" fill="none"> <g clip-path="url(#clip0)"> <path d="M212.266 237.432L184.649 195.741C192.715 194.996 202.699 191.718 210.248 181.552C212.039 179.139 212.551 175.989 211.616 173.125C210.68 170.255 208.403 168.008 205.525 167.114C200.904 165.679 196.391 163.872 192.059 161.716C183.022 157.221 174.434 150.956 168.479 142.748C166.845 140.495 165.406 138.097 164.224 135.576C161.309 129.362 159.74 121.597 160.298 114.747C160.351 114.101 161.5 108.23 161.332 108.129L176.837 117.404C176.871 117.425 176.906 117.445 176.941 117.464C184.074 121.46 190.054 128.742 193.814 134.147C195.728 136.9 198.736 138.681 202.065 139.036C202.473 139.08 202.881 139.102 203.288 139.102C206.187 139.102 208.996 138.006 211.14 136.006C215.095 132.317 215.948 126.281 213.167 121.657C208.547 113.972 202.905 107.821 195.41 102.298C193.501 100.892 190.798 101.336 189.445 103.307C188.145 105.201 188.718 107.808 190.564 109.175C197.151 114.052 201.904 119.245 205.958 125.99C206.705 127.232 206.471 128.858 205.403 129.855C204.5 130.697 203.485 130.727 202.956 130.673C202.427 130.616 201.431 130.368 200.719 129.344C196.463 123.227 189.608 114.938 181.106 110.156L163.347 99.5335C163.826 97.4688 164.266 95.3821 164.596 93.2701C166.456 94.4583 168.565 95.7444 170.972 97.1357C171.952 97.7017 172.919 98.2575 173.876 98.8055C175.875 99.9504 178.498 99.4091 179.702 97.4462C180.949 95.4153 180.263 92.7705 178.21 91.5941C177.214 91.0231 176.204 90.4441 175.181 89.8534C170.804 87.3234 167.509 85.1855 165.047 83.4482C164.926 82.0479 164.719 80.6353 164.394 79.2068C163.122 73.6348 163.367 69.6725 163.838 67.2336C174.459 65.0614 182.899 56.8379 185.388 46.3331C194.277 45.8757 201.278 38.1557 200.558 29.0068C199.953 21.3194 193.81 15.0622 186.134 14.3213C181.893 13.9123 177.952 15.1714 174.872 17.5112C169.868 13.7851 163.579 11.6934 156.801 12.0366C142.767 12.7471 131.324 24.0098 130.404 38.032C129.804 47.1708 133.639 55.45 139.955 60.9471C138.995 61.7303 137.98 62.4065 137.005 62.8572C134.755 63.8963 132.341 64.6586 129.799 65.4384C119.096 57.0399 107.357 48.0923 107.203 47.9748C100.692 43.0295 95.7786 34.9889 92.8031 29.1148C91.2885 26.1246 88.5571 23.9428 85.3093 23.1299C82.0676 22.3197 78.6385 22.9549 75.9021 24.8745C71.4744 27.9806 69.7934 33.8395 71.9071 38.8055C79.2191 55.9895 102.475 73.6084 104.592 75.1865L108.624 78.6223C107.402 80.4271 106.437 82.3472 105.793 84.3422C104.606 88.0222 104.501 92.0993 105.496 95.8232C106.024 97.7973 106.836 99.6061 107.91 101.199C109.865 104.096 112.787 106.038 115.471 107.722C114.497 112.026 113.532 120.059 116.207 130.153C116.375 131.294 117.74 142.262 110.316 155.403C109.18 157.413 109.708 160.038 111.679 161.24C112.367 161.66 113.124 161.86 113.871 161.86C115.332 161.86 116.753 161.097 117.529 159.735C123.791 148.747 124.837 138.847 124.807 133.278C129.822 132.94 134.823 132.357 139.768 131.449C142.085 131.023 144.39 130.526 146.675 129.945C148.776 129.411 150.891 128.56 152.983 128.126C153.197 129.628 154.202 133.62 155.282 136.189C159.361 145.89 165.996 153.44 174.029 160.156L176.481 162.207C186.043 169.058 196.196 173.025 203.029 175.147C203.395 175.261 203.552 175.53 203.619 175.735C203.685 175.936 203.716 176.239 203.494 176.539C192.271 191.653 173.602 186.843 172.826 186.635C171.286 186.208 169.635 186.695 168.57 187.889C152.193 206.243 132.646 195.669 131.836 195.217C130.677 194.559 129.275 194.489 128.057 195.03C107.779 204.018 93.3521 197.649 86.5565 193.054C86.2702 192.86 86.1953 192.587 86.1824 192.391C86.1712 192.22 86.1976 191.895 86.4952 191.633L104.28 175.958C106.022 174.422 106.19 171.764 104.655 170.022C103.119 168.28 100.462 168.112 98.7188 169.647L80.9339 185.322C78.7488 187.248 77.6028 190.019 77.7885 192.928C77.9735 195.817 79.4515 198.402 81.8437 200.021C87.0938 203.572 96.0656 208.012 108.093 208.012C109.493 208.012 110.936 207.948 112.417 207.819L114.028 263.679C110.093 270.02 106.765 283.422 118.257 296.633C120.146 298.805 122.869 300.051 125.729 300.051C128.588 300.051 131.311 298.805 133.199 296.633C144.696 283.417 141.362 270.01 137.425 263.672L139.077 206.39C140.408 206.634 141.826 206.827 143.315 206.938C147.629 207.26 152.979 206.926 158.649 204.846L193.167 250.947C193.316 252.933 193.855 256.493 195.744 260.408C198.275 265.653 203.77 272.514 215.584 275.417C216.373 275.61 217.172 275.706 217.967 275.706C219.991 275.706 221.982 275.089 223.66 273.906C225.996 272.259 227.505 269.673 227.798 266.81C229.584 249.385 219.135 240.345 212.266 237.432ZM184.554 22.6567C188.769 22.6567 192.198 26.0858 192.198 30.3007C192.198 34.0009 189.555 37.0935 186.058 37.794C185.662 32.5269 183.8 27.6655 180.877 23.6143C181.969 23.0089 183.219 22.6567 184.554 22.6567ZM153.757 20.9391C153.818 20.9245 153.881 20.9099 153.943 20.8958C165.911 18.1942 177.733 27.5744 177.733 39.9009C177.733 40.2773 177.72 40.652 177.699 41.0267C177.698 41.0531 177.695 41.0784 177.693 41.1049C171.648 40.0146 167.013 38.2019 163.304 35.5031C159.083 32.4313 155.65 27.9699 152.432 21.2975C152.869 21.1613 153.311 21.0438 153.757 20.9391ZM109.712 68.5135C109.478 68.3408 86.2471 51.0252 79.6462 35.5132C79.0785 34.1787 79.5348 32.6012 80.7314 31.7618C81.3604 31.3207 81.9899 31.1964 82.4991 31.1964C82.8085 31.1964 83.0735 31.2425 83.2676 31.2903C83.7846 31.4197 84.7354 31.8029 85.2997 32.9157C88.6742 39.578 94.3299 48.7607 102.111 54.6697C102.241 54.7687 111.102 61.5227 120.408 68.7729C118.225 69.7979 116.206 71.0536 114.389 72.4849L109.939 68.6936C109.866 68.6311 109.79 68.5709 109.712 68.5135ZM154.397 100.808C152.937 106.834 151.431 113.044 151.848 119.604C143.85 122.466 134.387 124.253 123.631 124.931C122.209 117.53 123.086 111.893 123.812 109C124.588 105.907 123.286 102.688 120.571 100.993L120.519 100.961C118.289 99.5672 115.982 98.1264 114.882 96.496C114.331 95.6786 113.907 94.7216 113.621 93.6526C113.037 91.4726 113.1 89.0832 113.797 86.9251C115.271 82.3551 119.429 78.2588 124.92 75.9668C127.05 75.0774 129.291 74.3921 131.663 73.6658C134.574 72.7752 137.585 71.8537 140.53 70.4933C142.72 69.4823 145.194 67.7366 147.347 65.5869C149.821 66.6406 152.478 67.345 155.256 67.6421C154.856 71.0081 154.914 75.4751 156.193 81.0791C157.641 87.4208 156.065 93.9233 154.397 100.808ZM138.754 39.902C138.754 34.2063 141.21 29.0737 145.119 25.5068C147.992 31.3776 152.051 37.7163 158.356 42.3038C162.935 45.636 168.424 47.878 175.357 49.2215C172.047 55.2761 165.617 59.3927 158.244 59.3927C147.497 59.3927 138.754 50.6493 138.754 39.902ZM129.648 203.496C129.973 203.641 130.336 203.797 130.733 203.959L129.097 260.703H122.359L120.793 206.413C123.629 205.71 126.582 204.754 129.648 203.496ZM126.855 291.113C126.273 291.782 125.187 291.783 124.604 291.113C120.014 285.837 118.106 280.298 118.932 274.651C119.276 272.303 120.04 270.382 120.668 269.114H130.792C131.39 270.322 132.112 272.122 132.475 274.313C133.43 280.076 131.54 285.728 126.855 291.113ZM198.238 243.685L166.269 200.987C168.579 199.463 170.89 197.588 173.157 195.29C173.531 195.355 173.947 195.42 174.39 195.483L203.747 239.803L198.238 243.685ZM219.431 265.953C219.385 266.394 219.161 266.788 218.815 267.032C218.468 267.277 218.022 267.355 217.592 267.25C210.8 265.58 206.049 262.152 203.472 257.06C202.4 254.943 201.918 252.933 201.701 251.535L209.976 245.703C211.225 246.379 212.954 247.509 214.585 249.228C218.514 253.369 220.144 258.996 219.431 265.953Z" fill="#ffffff"></path> </g> <defs> <clipPath id="clip0"> <rect width="300" height="300" fill="white"></rect> </clipPath> </defs> </svg>

<svg xmlns="http://www.w3.org/2000/svg" width="300" height="300" fill="none"><g clip-path="url(#clip0)"><path d="M212.266 237.432l-27.617-41.691c8.066-.745 18.05-4.023 25.599-14.189a9.311 9.311 0 001.368-8.427 9.33 9.33 0 00-6.091-6.011 90.465 90.465 0 01-13.466-5.398c-9.037-4.495-17.625-10.76-23.58-18.968a44.212 44.212 0 01-4.255-7.172c-2.915-6.214-4.484-13.979-3.926-20.829.053-.646 1.202-6.517 1.034-6.618l15.505 9.275c.034.021.069.041.104.06 7.133 3.996 13.113 11.278 16.873 16.683a11.534 11.534 0 009.474 4.955 11.51 11.51 0 007.852-3.096c3.955-3.689 4.808-9.725 2.027-14.349-4.62-7.685-10.262-13.836-17.757-19.359a4.206 4.206 0 00-5.965 1.009c-1.3 1.894-.727 4.501 1.119 5.868 6.587 4.877 11.34 10.07 15.394 16.815.747 1.242.513 2.868-.555 3.865a3.077 3.077 0 01-2.447.818 3.099 3.099 0 01-2.237-1.329c-4.256-6.117-11.111-14.406-19.613-19.188l-17.759-10.623c.479-2.064.919-4.15 1.249-6.263a168.073 168.073 0 006.376 3.866c.98.566 1.947 1.121 2.904 1.67 1.999 1.144 4.622.603 5.826-1.36a4.206 4.206 0 00-1.492-5.852c-.996-.57-2.006-1.15-3.029-1.74-4.377-2.53-7.672-4.668-10.134-6.406a31.142 31.142 0 00-.653-4.241c-1.272-5.572-1.027-9.534-.556-11.973 10.621-2.173 19.061-10.396 21.55-20.9 8.889-.458 15.89-8.178 15.17-17.327-.605-7.688-6.748-13.945-14.424-14.686a15.97 15.97 0 00-11.262 3.19 27.772 27.772 0 00-18.071-5.474c-14.034.71-25.477 11.973-26.397 25.995-.6 9.139 3.235 17.418 9.551 22.915-.96.783-1.975 1.46-2.95 1.91-2.25 1.04-4.664 1.802-7.206 2.581-10.703-8.398-22.442-17.346-22.596-17.463-6.511-4.946-11.424-12.986-14.4-18.86a11.539 11.539 0 00-7.494-5.985 11.512 11.512 0 00-9.407 1.745c-4.428 3.106-6.109 8.965-3.995 13.93 7.312 17.184 30.568 34.803 32.685 36.381l4.032 3.436c-1.222 1.805-2.187 3.725-2.831 5.72a20.555 20.555 0 00-.297 11.481c.528 1.974 1.34 3.783 2.414 5.376 1.955 2.897 4.877 4.839 7.561 6.523-.974 4.304-1.939 12.337.736 22.431.168 1.141 1.533 12.109-5.891 25.25-1.136 2.01-.608 4.635 1.363 5.837a4.205 4.205 0 005.85-1.505c6.262-10.988 7.308-20.888 7.278-26.457 5.015-.338 10.016-.921 14.961-1.829 2.317-.426 4.622-.923 6.907-1.504 2.101-.534 4.216-1.385 6.308-1.819.214 1.502 1.219 5.494 2.299 8.063 4.079 9.701 10.714 17.251 18.747 23.967l2.452 2.051c9.562 6.851 19.715 10.818 26.548 12.94a.878.878 0 01.59.588.857.857 0 01-.125.804c-11.223 15.114-29.892 10.304-30.668 10.096a4.201 4.201 0 00-4.256 1.254c-16.377 18.354-35.924 7.78-36.734 7.328a4.2 4.2 0 00-3.779-.187c-20.278 8.988-34.705 2.619-41.5-1.976a.84.84 0 01-.375-.663.914.914 0 01.313-.758l17.785-15.675a4.207 4.207 0 00-5.561-6.311l-17.785 15.675a9.28 9.28 0 00-3.145 7.606 9.216 9.216 0 004.055 7.093 46.742 46.742 0 0026.249 7.991c1.4 0 2.843-.064 4.324-.193l1.611 55.86c-3.935 6.341-7.263 19.743 4.229 32.954a9.905 9.905 0 007.472 3.418 9.901 9.901 0 007.47-3.418c11.497-13.216 8.163-26.623 4.226-32.961l1.652-57.282c1.331.244 2.749.437 4.238.548 4.314.322 9.664-.012 15.334-2.092l34.518 46.101c.149 1.986.688 5.546 2.577 9.461 2.531 5.245 8.026 12.106 19.84 15.009.789.193 1.588.289 2.383.289a9.874 9.874 0 005.693-1.8 9.907 9.907 0 004.138-7.096c1.786-17.425-8.663-26.465-15.532-29.378zM184.554 22.657c4.215 0 7.644 3.429 7.644 7.644 0 3.7-2.643 6.793-6.14 7.493a27.74 27.74 0 00-5.181-14.18 7.556 7.556 0 013.677-.957zm-30.797-1.718c.061-.015.124-.03.186-.043 11.968-2.702 23.79 6.678 23.79 19.005 0 .376-.013.751-.034 1.126l-.006.078c-6.045-1.09-10.68-2.903-14.389-5.602-4.221-3.072-7.654-7.533-10.872-14.206.437-.136.879-.253 1.325-.358zm-44.045 47.575c-.234-.173-23.465-17.489-30.066-33a3.12 3.12 0 011.085-3.752 3.036 3.036 0 011.768-.566c.31 0 .575.046.769.094.517.13 1.467.513 2.032 1.626 3.374 6.662 9.03 15.845 16.811 21.754.13.099 8.991 6.853 18.297 14.103a31.084 31.084 0 00-6.019 3.712l-4.45-3.791a3.942 3.942 0 00-.227-.18zm44.685 32.294c-1.46 6.026-2.966 12.236-2.549 18.796-7.998 2.862-17.461 4.649-28.217 5.327-1.422-7.401-.545-13.038.181-15.931a7.32 7.32 0 00-3.241-8.007l-.052-.032c-2.23-1.394-4.537-2.835-5.637-4.465-.551-.817-.975-1.774-1.261-2.843-.584-2.18-.521-4.57.176-6.728 1.474-4.57 5.632-8.666 11.123-10.958 2.13-.89 4.371-1.575 6.743-2.301 2.911-.89 5.922-1.812 8.867-3.173 2.19-1.01 4.664-2.756 6.817-4.906a27.672 27.672 0 007.909 2.055c-.4 3.366-.342 7.833.937 13.437 1.448 6.342-.128 12.844-1.796 19.729zm-15.643-60.906c0-5.696 2.456-10.828 6.365-14.395 2.873 5.87 6.932 12.21 13.237 16.797 4.579 3.332 10.068 5.574 17.001 6.917-3.31 6.055-9.74 10.172-17.113 10.172-10.747 0-19.49-8.744-19.49-19.491zm-9.106 163.594c.325.145.688.301 1.085.463l-1.636 56.744h-6.738l-1.566-54.29a63.676 63.676 0 008.855-2.917zm-2.793 87.617c-.582.669-1.668.67-2.251 0-4.59-5.276-6.498-10.815-5.672-16.462a18.725 18.725 0 011.736-5.537h10.124a18.749 18.749 0 011.683 5.199c.955 5.763-.935 11.415-5.62 16.8zm71.383-47.428l-31.969-42.698c2.31-1.524 4.621-3.399 6.888-5.697.374.065.79.13 1.233.193l29.357 44.32-5.509 3.882zm21.193 22.268c-.046.441-.27.835-.616 1.079a1.5 1.5 0 01-1.223.218c-6.792-1.67-11.543-5.098-14.12-10.19a18.7 18.7 0 01-1.771-5.525l8.275-5.832a18.656 18.656 0 014.609 3.525c3.929 4.141 5.559 9.768 4.846 16.725z" fill="#fff"/></g><defs><clipPath id="clip0"><path fill="#fff" d="M0 0h300v300H0z"/></clipPath></defs></svg>
